X:15
T:Chanter's Song, The
T:Chanter's Tune, The
T:Song of the Chanter, The
R:march
H:Also played in Dmix, #10
Z:id:hn-march-15
M:2/4
L:1/8
K:Amix
AA ed/B/|AA gf/g/|ae ed/B/|gf/g/ ed/B/|
AA ed/B/|AA gf/g/|ae ed/B/|A2 A2:|
|:e>f gf/g/|e/d/e/f/ gf/g/|ae ed/B/|gf/g/ ed/B/|
AA ed/B/|AA gf/g/|ae ed/B/|A2 A2:|
<end>
<start>
